X: 20
T: Tick Dance Song (i)
C: Anon.
%%abc-version 2.0
%%abcx-abcm2ps-target-version 5.9.1 (29 Sep 2008)
%%abc-creator hum2abc beta
%%abcx-conversion-date 2020/08/10 20:56:09
%%abc-copyright Electronic Copyright 2000 David Huron
%%abc-edited-by David Huron
%%abcx-initial-encoding-date August 27, 2000
%%humdrum-veritas 1844996409
%%humdrum-veritas-data 1102055344
%%linebreak <none>
%%barnumbers 0
L: 1/4
M: 2/4
Q: 1/4=80
K: Eb clef=bass
B,3/G,/ | 
B,G,/ E,/ | 
G,F,/ E,/ | 
E,E,/ z/ | 
B,/< G,/B, | 
G,F,/ E,/ | 
F,3/E,/[M:3/4] | 
F,E,/ z/G,[M:2/4] | 
F,3/E,/[M:3/4] | 
F,E,G,[M:2/4] | 
F,3/E,/ | 
F,F, | 
C3/G,/ | 
B,G,/ F,/ | 
G,G,/ F,/ | 
E,/ E,/ E,/ z/ | 
B,/< G,/B, | 
G,F,/ E/ | 
F,3/E,/[M:3/4] | 
F,E,G,[M:2/4] | 
F,3/=E,/[M:3/4] | 
F,E,G,[M:2/4] | 
F,3/E,/ | 
F,F, | 
B,3/G,/ | 
B,G,/ E,/ | 
G,F,/ E,/ | 
E,E,/ z/ | 
B,/< G,/B, | 
G,F,/ E,/ | 
F,3/E,/[M:3/4] | 
F,E,/ z/G,[M:2/4] | 
F,3/E,/[M:3/4] | 
F,E,G,[M:2/4] | 
F,3/E,/ | 
F,F, |]  


